images/icons8-logotipo-de-javascript.svg

<svg xmlns="http://www.w3.org/2000/svg" xmlns:xlink="http://www.w3.org/1999/xlink" viewBox="0,0,255.98959,255.98959" width="50px" height="50px" fill-rule="nonzero"><g fill="#000000" fill-rule="nonzero" stroke="none" stroke-width="1" stroke-linecap="butt" stroke-linejoin="miter" stroke-miterlimit="10" stroke-dasharray="" stroke-dashoffset="0" font-family="none" font-weight="none" font-size="none" text-anchor="none" style="mix-blend-mode: normal"><g transform="scale(5.12,5.12)"><path d="M45.274,2.325c-0.19,-0.207 -0.457,-0.325 -0.738,-0.325h-39.072c-0.281,0 -0.548,0.118 -0.738,0.325c-0.19,0.207 -0.283,0.485 -0.258,0.764l3.52,39.427c0.037,0.412 0.324,0.759 0.722,0.873l16.01,4.573c0.089,0.025 0.182,0.038 0.274,0.038c0.092,0 0.185,-0.013 0.274,-0.038l16.024,-4.573c0.398,-0.114 0.685,-0.461 0.722,-0.873l3.518,-39.427c0.025,-0.279 -0.069,-0.557 -0.258,-0.764zM12,29.004l7,1.942v-19.946h4v26l-11,-3.051zM38.054,22l-1.054,12.25l-10,2.75v-4.601l6.75,-1.855l0.25,-3.75l-7,1.206v-17h12l-0.345,4h-7.655v8z"></path></g></g></svg>

<?xml version="1.0"?><svg xmlns="http://www.w3.org/2000/svg"  viewBox="0 0 50 50" width="50px" height="50px">    <path d="M45.274,2.325C45.084,2.118,44.817,2,44.536,2H5.464C5.183,2,4.916,2.118,4.726,2.325S4.443,2.81,4.468,3.089l3.52,39.427 c0.037,0.412,0.324,0.759,0.722,0.873l16.01,4.573C24.809,47.987,24.902,48,24.994,48s0.185-0.013,0.274-0.038l16.024-4.573 c0.398-0.114,0.685-0.461,0.722-0.873l3.518-39.427C45.557,2.81,45.463,2.532,45.274,2.325z M12,29.004l7,1.942V11h4v26l-11-3.051 V29.004z M38.054,22L37,34.25L27,37v-4.601l6.75-1.855l0.25-3.75L27,28V11h12l-0.345,4H31v8L38.054,22z"/></svg>
